X: 16761
T: Hare's Paw, The
R: reel
M: 4/4
K: Gmajor
|G2GA B2Bd|B2BA E2ED|G2GA BABd|efgf edBA|
G2GA B2Bd|B2BA E3D|G2GA BABd|egfd e2ef|
gfaf gfed|Bdfd B2ef|gfaf gfed|Bdef e2ef|
gfaf gfed|Bdfd B2ef|bgaf gfed|efgf edBA|

